!!!COM: Johannes Brahms
!!!CNT: Deutscher
!!!TXO: Deutsche
!!!OTL: Eine gute, gute Nacht
!!!OPS: Op. 59
!!!ONM: No. 6
!!!LYR: Daumer
!!!ONB: Original key: a minor
!!!ENC: Ayako Kataoka        
!!!EED: Leigh VanHandel
!!!YOR: C.F. Peters, Brahms Lieder fu2r eine Singstimme mit Klavierbegleitung, Band III, ausgabe fu2r tiefere Stimme
!!!ODT: 1873/
!!NB: Vocal melody and text only encoded.
**kern	**silbe
*clefG2	*
*k[f#c#g#]	*
*M2/4	*
*MM[andante]	*
=6	=6
4r	.
{8cc#	{Ei-
8g#	-ne
=7	=7
8b	gu-
8f#	-te,
8g#	gu-
8e	-te
=8	=8
(8b	Nacht
8a)}	|}
4r	.
=9	=9
4r	.
{8e	{pflegst
8b	du
=10	=10
(8dd	mir
8cc#)	|
8r	.
8a	zu
=11	=11
(8.g#	sa-
16cc#)	|
4a}	-gen,}
=14	=14
8r	.
{4a	{u2-
8a	-ber
=15	=15
8g#	die-
8g#	-ses
8.cc#	eit-
16b	-le
=16	=16
4a	Wort,}
8dd#	{o
8cc#	wie
=17	=17
8.a	muss
16g#	ich
(8.a	kla-
16g#)	|
=18	=18
4e#}	-gen!}
4r	.
=20	=20
{8.f#	{Dass
16g#	du
8a	mei-
8cc#	-ner
=21	=21
8.cc#	See-
16b	-le
(8a	Glut
8g#)	|
=22	=22
(8.f#	nicht
16a)	so
8cc#	grau
8dd#	sam
=23	=23
4cc#	na2hr-
8b#}	-test,}
8r	.
=24	=24
8r	.
{4cc#	{nicht,
8a#	so
=25	=25
4.f#	grau-
8b	-sam
=26	=26
4an	na2hr-
8g#}	-test,}
8r	.
=28	=28
4r	.
{8cc#	{ei-
8g#	-ne
=29	=29
8b	gu-
8f#	-te,
8g#	gu-
8e	-te
=30	=30
(8b	Nacht,
8a)}	|}
{[4ee	{dass
=31	=31
8ee]	|
8dd	du
8b	sie
8g#	ge-
=32	=32
(8.cc#	-wa2hr-
16a#)	|
4f#}	-test,}
=33	=33
8r	.
{([8ff#	{dass
16ff#]	|
16dd)	|
(16b	du
16g#)	|
=34	=34
4cc#}	sie}
8r	.
{8dd#	{ge-
=36	=36
(4.cc#	wa2hr-
8g#)	|
=37	=37
4a#}	-test!}
4r	.
*-	*-
